images/3235073.svg

<?xml version="1.0" encoding="UTF-8"?>
<svg xmlns="http://www.w3.org/2000/svg" xmlns:xlink="http://www.w3.org/1999/xlink" width="300pt" height="300pt" viewBox="0 0 300 300" version="1.1">
<defs>
<g>
<symbol overflow="visible" id="glyph0-0">
<path style="stroke:none;" d="M 0.546875 1.9375 L 0.546875 -7.75 L 6.046875 -7.75 L 6.046875 1.9375 Z M 1.171875 1.328125 L 5.4375 1.328125 L 5.4375 -7.140625 L 1.171875 -7.140625 Z M 1.171875 1.328125 "/>
</symbol>
<symbol overflow="visible" id="glyph0-1">
<path style="stroke:none;" d="M 1.078125 -8.015625 L 2.546875 -8.015625 L 6.09375 -1.3125 L 6.09375 -8.015625 L 7.15625 -8.015625 L 7.15625 0 L 5.6875 0 L 2.125 -6.703125 L 2.125 0 L 1.078125 0 Z M 1.078125 -8.015625 "/>
</symbol>
<symbol overflow="visible" id="glyph0-2">
<path style="stroke:none;" d="M 1.078125 -8.015625 L 2.171875 -8.015625 L 2.171875 -4.734375 L 6.109375 -4.734375 L 6.109375 -8.015625 L 7.1875 -8.015625 L 7.1875 0 L 6.109375 0 L 6.109375 -3.8125 L 2.171875 -3.8125 L 2.171875 0 L 1.078125 0 Z M 1.078125 -8.015625 "/>
</symbol>
</g>
</defs>
<g id="surface35333">
<rect x="0" y="0" width="300" height="300" style="fill:rgb(100%,100%,100%);fill-opacity:1;stroke:none;"/>
<path style="fill:none;stroke-width:1.2;stroke-linecap:butt;stroke-linejoin:miter;stroke:rgb(0%,0%,0%);stroke-opacity:1;stroke-miterlimit:10;" d="M 41.839844 144.59375 L 52.476562 118.558594 "/>
<path style="fill:none;stroke-width:1.2;stroke-linecap:butt;stroke-linejoin:miter;stroke:rgb(0%,0%,0%);stroke-opacity:1;stroke-miterlimit:10;" d="M 52.476562 118.558594 L 35.25 96.332031 "/>
<path style="fill:none;stroke-width:1.2;stroke-linecap:butt;stroke-linejoin:miter;stroke:rgb(0%,0%,0%);stroke-opacity:1;stroke-miterlimit:10;" d="M 55.984375 112.28125 L 42.203125 94.5 "/>
<path style="fill:none;stroke-width:1.2;stroke-linecap:butt;stroke-linejoin:miter;stroke:rgb(0%,0%,0%);stroke-opacity:1;stroke-miterlimit:10;" d="M 80.339844 114.753906 L 52.476562 118.558594 "/>
<path style="fill:none;stroke-width:1.2;stroke-linecap:butt;stroke-linejoin:miter;stroke:rgb(0%,0%,0%);stroke-opacity:1;stroke-miterlimit:10;" d="M 35.25 96.332031 L 45.886719 70.296875 "/>
<path style="fill:none;stroke-width:1.2;stroke-linecap:butt;stroke-linejoin:miter;stroke:rgb(0%,0%,0%);stroke-opacity:1;stroke-miterlimit:10;" d="M 45.886719 70.296875 L 73.75 66.492188 "/>
<path style="fill:none;stroke-width:1.2;stroke-linecap:butt;stroke-linejoin:miter;stroke:rgb(0%,0%,0%);stroke-opacity:1;stroke-miterlimit:10;" d="M 49.570312 76.472656 L 71.859375 73.429688 "/>
<path style="fill:none;stroke-width:1.2;stroke-linecap:butt;stroke-linejoin:miter;stroke:rgb(0%,0%,0%);stroke-opacity:1;stroke-miterlimit:10;" d="M 73.75 66.492188 L 90.976562 88.722656 "/>
<path style="fill:none;stroke-width:1.2;stroke-linecap:butt;stroke-linejoin:miter;stroke:rgb(0%,0%,0%);stroke-opacity:1;stroke-miterlimit:10;" d="M 90.976562 88.722656 L 80.339844 114.753906 "/>
<path style="fill:none;stroke-width:1.2;stroke-linecap:butt;stroke-linejoin:miter;stroke:rgb(0%,0%,0%);stroke-opacity:1;stroke-miterlimit:10;" d="M 83.789062 88.824219 L 75.277344 109.648438 "/>
<path style="fill:none;stroke-width:1.2;stroke-linecap:butt;stroke-linejoin:miter;stroke:rgb(0%,0%,0%);stroke-opacity:1;stroke-miterlimit:10;" d="M 80.339844 114.753906 L 97.566406 136.984375 "/>
<path style="fill:none;stroke-width:1.2;stroke-linecap:butt;stroke-linejoin:miter;stroke:rgb(0%,0%,0%);stroke-opacity:1;stroke-miterlimit:10;" d="M 97.566406 136.984375 L 92.25 150 "/>
<path style="fill:none;stroke-width:1.2;stroke-linecap:butt;stroke-linejoin:miter;stroke:rgb(0%,0%,100%);stroke-opacity:1;stroke-miterlimit:10;" d="M 92.25 150 L 86.929688 163.015625 "/>
<path style="fill:none;stroke-width:1.2;stroke-linecap:butt;stroke-linejoin:miter;stroke:rgb(0%,0%,0%);stroke-opacity:1;stroke-miterlimit:10;" d="M 102.628906 142.089844 L 98.375 152.503906 "/>
<path style="fill:none;stroke-width:1.2;stroke-linecap:butt;stroke-linejoin:miter;stroke:rgb(0%,0%,100%);stroke-opacity:1;stroke-miterlimit:10;" d="M 98.375 152.503906 L 94.117188 162.917969 "/>
<path style="fill:none;stroke-width:1.2;stroke-linecap:butt;stroke-linejoin:miter;stroke:rgb(0%,0%,100%);stroke-opacity:1;stroke-miterlimit:10;" d="M 125.429688 133.179688 L 111.5 135.082031 "/>
<path style="fill:none;stroke-width:1.2;stroke-linecap:butt;stroke-linejoin:miter;stroke:rgb(0%,0%,0%);stroke-opacity:1;stroke-miterlimit:10;" d="M 111.5 135.082031 L 97.566406 136.984375 "/>
<path style="fill:none;stroke-width:1.2;stroke-linecap:butt;stroke-linejoin:miter;stroke:rgb(0%,0%,100%);stroke-opacity:1;stroke-miterlimit:10;" d="M 86.929688 163.015625 L 95.542969 174.128906 "/>
<path style="fill:none;stroke-width:1.2;stroke-linecap:butt;stroke-linejoin:miter;stroke:rgb(0%,0%,0%);stroke-opacity:1;stroke-miterlimit:10;" d="M 95.542969 174.128906 L 104.15625 185.246094 "/>
<path style=" stroke:none;fill-rule:nonzero;fill:rgb(100%,100%,100%);fill-opacity:1;" d="M 82.929688 156.515625 L 90.929688 156.515625 L 90.929688 169.515625 L 82.929688 169.515625 Z M 82.929688 156.515625 "/>
<g style="fill:rgb(0%,0%,100%);fill-opacity:1;">
  <use xlink:href="#glyph0-1" x="82.929688" y="166.416992"/>
</g>
<path style="fill:none;stroke-width:1.2;stroke-linecap:butt;stroke-linejoin:miter;stroke:rgb(0%,0%,0%);stroke-opacity:1;stroke-miterlimit:10;" d="M 104.15625 185.246094 L 93.519531 211.277344 "/>
<path style="fill:none;stroke-width:1.2;stroke-linecap:butt;stroke-linejoin:miter;stroke:rgb(0%,0%,0%);stroke-opacity:1;stroke-miterlimit:10;" d="M 109.21875 190.351562 L 100.707031 211.175781 "/>
<path style="fill:none;stroke-width:1.2;stroke-linecap:butt;stroke-linejoin:miter;stroke:rgb(0%,0%,0%);stroke-opacity:1;stroke-miterlimit:10;" d="M 132.019531 181.441406 L 104.15625 185.246094 "/>
<path style="fill:none;stroke-width:1.2;stroke-linecap:butt;stroke-linejoin:miter;stroke:rgb(0%,0%,0%);stroke-opacity:1;stroke-miterlimit:10;" d="M 93.519531 211.277344 L 110.746094 233.507812 "/>
<path style="fill:none;stroke-width:1.2;stroke-linecap:butt;stroke-linejoin:miter;stroke:rgb(0%,0%,0%);stroke-opacity:1;stroke-miterlimit:10;" d="M 110.746094 233.507812 L 138.609375 229.703125 "/>
<path style="fill:none;stroke-width:1.2;stroke-linecap:butt;stroke-linejoin:miter;stroke:rgb(0%,0%,0%);stroke-opacity:1;stroke-miterlimit:10;" d="M 112.636719 226.570312 L 134.925781 223.527344 "/>
<path style="fill:none;stroke-width:1.2;stroke-linecap:butt;stroke-linejoin:miter;stroke:rgb(0%,0%,0%);stroke-opacity:1;stroke-miterlimit:10;" d="M 138.609375 229.703125 L 149.246094 203.667969 "/>
<path style="fill:none;stroke-width:1.2;stroke-linecap:butt;stroke-linejoin:miter;stroke:rgb(0%,0%,0%);stroke-opacity:1;stroke-miterlimit:10;" d="M 149.246094 203.667969 L 132.019531 181.441406 "/>
<path style="fill:none;stroke-width:1.2;stroke-linecap:butt;stroke-linejoin:miter;stroke:rgb(0%,0%,0%);stroke-opacity:1;stroke-miterlimit:10;" d="M 142.292969 205.5 L 128.511719 187.71875 "/>
<path style="fill:none;stroke-width:1.2;stroke-linecap:butt;stroke-linejoin:miter;stroke:rgb(0%,0%,0%);stroke-opacity:1;stroke-miterlimit:10;" d="M 132.019531 181.441406 L 142.65625 155.40625 "/>
<path style="fill:none;stroke-width:1.2;stroke-linecap:butt;stroke-linejoin:miter;stroke:rgb(0%,0%,0%);stroke-opacity:1;stroke-miterlimit:10;" d="M 142.65625 155.40625 L 134.042969 144.292969 "/>
<path style="fill:none;stroke-width:1.2;stroke-linecap:butt;stroke-linejoin:miter;stroke:rgb(0%,0%,100%);stroke-opacity:1;stroke-miterlimit:10;" d="M 134.042969 144.292969 L 125.429688 133.179688 "/>
<path style="fill:none;stroke-width:1.2;stroke-linecap:butt;stroke-linejoin:miter;stroke:rgb(0%,0%,0%);stroke-opacity:1;stroke-miterlimit:10;" d="M 135.703125 157.238281 L 128.8125 148.347656 "/>
<path style="fill:none;stroke-width:1.2;stroke-linecap:butt;stroke-linejoin:miter;stroke:rgb(0%,0%,100%);stroke-opacity:1;stroke-miterlimit:10;" d="M 128.8125 148.347656 L 121.921875 139.457031 "/>
<path style="fill:none;stroke-width:1.2;stroke-linecap:butt;stroke-linejoin:miter;stroke:rgb(0%,0%,0%);stroke-opacity:1;stroke-miterlimit:10;" d="M 142.65625 155.40625 L 156.589844 153.507812 "/>
<path style="fill:none;stroke-width:1.2;stroke-linecap:butt;stroke-linejoin:miter;stroke:rgb(0%,0%,100%);stroke-opacity:1;stroke-miterlimit:10;" d="M 156.589844 153.507812 L 170.519531 151.605469 "/>
<path style=" stroke:none;fill-rule:nonzero;fill:rgb(100%,100%,100%);fill-opacity:1;" d="M 121.429688 126.679688 L 129.429688 126.679688 L 129.429688 139.679688 L 121.429688 139.679688 Z M 121.429688 126.679688 "/>
<g style="fill:rgb(0%,0%,100%);fill-opacity:1;">
  <use xlink:href="#glyph0-1" x="121.429688" y="136.581055"/>
</g>
<path style="fill:none;stroke-width:1.2;stroke-linecap:butt;stroke-linejoin:miter;stroke:rgb(0%,0%,100%);stroke-opacity:1;stroke-miterlimit:10;" d="M 170.519531 151.605469 L 175.839844 138.585938 "/>
<path style="fill:none;stroke-width:1.2;stroke-linecap:butt;stroke-linejoin:miter;stroke:rgb(0%,0%,0%);stroke-opacity:1;stroke-miterlimit:10;" d="M 175.839844 138.585938 L 181.160156 125.570312 "/>
<path style=" stroke:none;fill-rule:nonzero;fill:rgb(100%,100%,100%);fill-opacity:1;" d="M 162.519531 145.105469 L 179.519531 145.105469 L 179.519531 158.105469 L 162.519531 158.105469 Z M 162.519531 145.105469 "/>
<g style="fill:rgb(0%,0%,100%);fill-opacity:1;">
  <use xlink:href="#glyph0-1" x="162.519531" y="155.006836"/>
  <use xlink:href="#glyph0-2" x="170.50293" y="155.006836"/>
</g>
<path style="fill:none;stroke-width:1.2;stroke-linecap:butt;stroke-linejoin:miter;stroke:rgb(0%,0%,0%);stroke-opacity:1;stroke-miterlimit:10;" d="M 181.160156 125.570312 L 209.023438 121.765625 "/>
<path style="fill:none;stroke-width:1.2;stroke-linecap:butt;stroke-linejoin:miter;stroke:rgb(0%,0%,0%);stroke-opacity:1;stroke-miterlimit:10;" d="M 209.023438 121.765625 L 226.25 143.996094 "/>
<path style="fill:none;stroke-width:1.2;stroke-linecap:butt;stroke-linejoin:miter;stroke:rgb(0%,0%,0%);stroke-opacity:1;stroke-miterlimit:10;" d="M 215.976562 119.9375 L 229.757812 137.71875 "/>
<path style="fill:none;stroke-width:1.2;stroke-linecap:butt;stroke-linejoin:miter;stroke:rgb(0%,0%,0%);stroke-opacity:1;stroke-miterlimit:10;" d="M 219.660156 95.734375 L 209.023438 121.765625 "/>
<path style="fill:none;stroke-width:1.2;stroke-linecap:butt;stroke-linejoin:miter;stroke:rgb(0%,0%,0%);stroke-opacity:1;stroke-miterlimit:10;" d="M 226.25 143.996094 L 240.179688 142.09375 "/>
<path style="fill:none;stroke-width:1.2;stroke-linecap:butt;stroke-linejoin:miter;stroke:rgb(0%,0%,100%);stroke-opacity:1;stroke-miterlimit:10;" d="M 240.179688 142.09375 L 254.113281 140.191406 "/>
<path style="fill:none;stroke-width:1.2;stroke-linecap:butt;stroke-linejoin:miter;stroke:rgb(0%,0%,100%);stroke-opacity:1;stroke-miterlimit:10;" d="M 254.113281 140.191406 L 259.429688 127.175781 "/>
<path style="fill:none;stroke-width:1.2;stroke-linecap:butt;stroke-linejoin:miter;stroke:rgb(0%,0%,0%);stroke-opacity:1;stroke-miterlimit:10;" d="M 259.429688 127.175781 L 264.75 114.160156 "/>
<path style="fill:none;stroke-width:1.2;stroke-linecap:butt;stroke-linejoin:miter;stroke:rgb(0%,0%,100%);stroke-opacity:1;stroke-miterlimit:10;" d="M 249.050781 135.085938 L 253.304688 124.671875 "/>
<path style="fill:none;stroke-width:1.2;stroke-linecap:butt;stroke-linejoin:miter;stroke:rgb(0%,0%,0%);stroke-opacity:1;stroke-miterlimit:10;" d="M 253.304688 124.671875 L 257.5625 114.257812 "/>
<path style=" stroke:none;fill-rule:nonzero;fill:rgb(100%,100%,100%);fill-opacity:1;" d="M 250.113281 133.691406 L 258.113281 133.691406 L 258.113281 146.691406 L 250.113281 146.691406 Z M 250.113281 133.691406 "/>
<g style="fill:rgb(0%,0%,100%);fill-opacity:1;">
  <use xlink:href="#glyph0-1" x="250.113281" y="143.592773"/>
</g>
<path style="fill:none;stroke-width:1.2;stroke-linecap:butt;stroke-linejoin:miter;stroke:rgb(0%,0%,0%);stroke-opacity:1;stroke-miterlimit:10;" d="M 264.75 114.160156 L 247.523438 91.929688 "/>
<path style="fill:none;stroke-width:1.2;stroke-linecap:butt;stroke-linejoin:miter;stroke:rgb(0%,0%,0%);stroke-opacity:1;stroke-miterlimit:10;" d="M 247.523438 91.929688 L 219.660156 95.734375 "/>
<path style="fill:none;stroke-width:1.2;stroke-linecap:butt;stroke-linejoin:miter;stroke:rgb(0%,0%,0%);stroke-opacity:1;stroke-miterlimit:10;" d="M 245.632812 98.867188 L 223.339844 101.910156 "/>
</g>
</svg>

<svg xmlns="http://www.w3.org/2000/svg" xmlns:xlink="http://www.w3.org/1999/xlink" width="300pt" height="300pt" viewBox="0 0 300 300"><defs><symbol overflow="visible"><path d="M.547 1.938V-7.75h5.5v9.688zm.625-.61h4.266v-8.47H1.171zm0 0"/></symbol><symbol overflow="visible" id="a"><path d="M1.078-8.016h1.47l3.546 6.704v-6.704h1.062V0H5.688L2.124-6.703V0H1.078zm0 0"/></symbol><symbol overflow="visible" id="b"><path d="M1.078-8.016h1.094v3.282H6.11v-3.282h1.077V0H6.11v-3.813H2.17V0H1.078zm0 0"/></symbol></defs><g><path fill="#fff" d="M0 0h300v300H0z"/><path d="M41.84 144.594l10.637-26.035M52.477 118.56L35.25 96.33M55.984 112.28L42.204 94.5M80.34 114.754l-27.863 3.805M35.25 96.332l10.637-26.035M45.887 70.297l27.863-3.805M49.57 76.473l22.29-3.043M73.75 66.492l17.227 22.23M90.977 88.723l-10.637 26.03M83.79 88.824l-8.513 20.824M80.34 114.754l17.226 22.23M97.566 136.984L92.25 150" stroke-width="1.2" stroke="#000" stroke-miterlimit="10" fill="none"/><path d="M92.25 150l-5.32 13.016" stroke-width="1.2" stroke="#00f" stroke-miterlimit="10" fill="none"/><path d="M102.63 142.09l-4.255 10.414" stroke-width="1.2" stroke="#000" stroke-miterlimit="10" fill="none"/><path d="M98.375 152.504l-4.258 10.414M125.43 133.18l-13.93 1.902" stroke-width="1.2" stroke="#00f" stroke-miterlimit="10" fill="none"/><path d="M111.5 135.082l-13.934 1.902" stroke-width="1.2" stroke="#000" stroke-miterlimit="10" fill="none"/><path d="M86.93 163.016l8.613 11.113" stroke-width="1.2" stroke="#00f" stroke-miterlimit="10" fill="none"/><path d="M95.543 174.13l8.613 11.116" stroke-width="1.2" stroke="#000" stroke-miterlimit="10" fill="none"/><path d="M82.93 156.516h8v13h-8zm0 0" fill="#fff"/><use xlink:href="#a" x="82.93" y="166.417" fill="#00f"/><path d="M104.156 185.246l-10.636 26.03M109.22 190.352l-8.513 20.824M132.02 181.44l-27.864 3.806M93.52 211.277l17.226 22.23M110.746 233.508l27.863-3.805M112.637 226.57l22.29-3.043M138.61 229.703l10.636-26.035M149.246 203.668L132.02 181.44M142.293 205.5l-13.78-17.78M132.02 181.44l10.636-26.034M142.656 155.406l-8.613-11.113" stroke-width="1.2" stroke="#000" stroke-miterlimit="10" fill="none"/><path d="M134.043 144.293l-8.613-11.113" stroke-width="1.2" stroke="#00f" stroke-miterlimit="10" fill="none"/><path d="M135.703 157.238l-6.89-8.89" stroke-width="1.2" stroke="#000" stroke-miterlimit="10" fill="none"/><path d="M128.813 148.348l-6.89-8.89" stroke-width="1.2" stroke="#00f" stroke-miterlimit="10" fill="none"/><path d="M142.656 155.406l13.934-1.898" stroke-width="1.2" stroke="#000" stroke-miterlimit="10" fill="none"/><path d="M156.59 153.508l13.93-1.903" stroke-width="1.2" stroke="#00f" stroke-miterlimit="10" fill="none"/><path d="M121.43 126.68h8v13h-8zm0 0" fill="#fff"/><use xlink:href="#a" x="121.43" y="136.581" fill="#00f"/><path d="M170.52 151.605l5.32-13.02" stroke-width="1.2" stroke="#00f" stroke-miterlimit="10" fill="none"/><path d="M175.84 138.586l5.32-13.016" stroke-width="1.2" stroke="#000" stroke-miterlimit="10" fill="none"/><path d="M162.52 145.105h17v13h-17zm0 0" fill="#fff"/><g fill="#00f"><use xlink:href="#a" x="162.52" y="155.007"/><use xlink:href="#b" x="170.503" y="155.007"/></g><path d="M181.16 125.57l27.863-3.804M209.023 121.766l17.227 22.23M215.977 119.938l13.78 17.78M219.66 95.734l-10.637 26.032M226.25 143.996l13.93-1.902" stroke-width="1.2" stroke="#000" stroke-miterlimit="10" fill="none"/><path d="M240.18 142.094l13.933-1.903M254.113 140.19l5.317-13.014" stroke-width="1.2" stroke="#00f" stroke-miterlimit="10" fill="none"/><path d="M259.43 127.176l5.32-13.016" stroke-width="1.2" stroke="#000" stroke-miterlimit="10" fill="none"/><path d="M249.05 135.086l4.255-10.414" stroke-width="1.2" stroke="#00f" stroke-miterlimit="10" fill="none"/><path d="M253.305 124.672l4.257-10.414" stroke-width="1.2" stroke="#000" stroke-miterlimit="10" fill="none"/><path d="M250.113 133.69h8v13h-8zm0 0" fill="#fff"/><use xlink:href="#a" x="250.113" y="143.593" fill="#00f"/><path d="M264.75 114.16l-17.227-22.23M247.523 91.93l-27.863 3.804M245.633 98.867l-22.293 3.043" stroke-width="1.2" stroke="#000" stroke-miterlimit="10" fill="none"/></g></svg>
